collections/remixicon/finance/swap-box-line.svg

<svg viewBox="0 0 24 24" xmlns="http://www.w3.org/2000/svg" width="20" height="20"><path d="M4.005 5.003v14h16v-14h-16zm-1-2h18a1 1 0 011 1v16a1 1 0 01-1 1h-18a1 1 0 01-1-1v-16a1 1 0 011-1zm12 4l3.5 3-3.5 3v-2h-4v-2h4v-2zm-6 10l-3.5-3 3.5-3v2h4v2h-4v2z"/></svg>

<svg xmlns="http://www.w3.org/2000/svg" viewBox="0 0 24 24" width="20" height="20"><path fill="none" d="M0 0h24v24H0z"/><path d="M4 5v14h16V5H4zM3 3h18a1 1 0 011 1v16a1 1 0 01-1 1H3a1 1 0 01-1-1V4a1 1 0 011-1zm12 4l3.5 3-3.5 3v-2h-4V9h4V7zM9 17l-3.5-3L9 11v2h4v2H9v2z"/></svg>
